svgs/thin/square-f.svg

<svg xmlns="http://www.w3.org/2000/svg" viewBox="0 0 448 512"><!-- Font Awesome Pro 6.0.0-alpha2 by @fontawesome - https://fontawesome.com License - https://fontawesome.com/license (Commercial License) --><path d="M384 32H64C28.654 32 0 60.654 0 96V416C0 451.346 28.654 480 64 480H384C419.346 480 448 451.346 448 416V96C448 60.654 419.346 32 384 32ZM432 416C432 442.467 410.467 464 384 464H64C37.533 464 16 442.467 16 416V96C16 69.533 37.533 48 64 48H384C410.467 48 432 69.533 432 96V416ZM312 128H136C131.594 128 128 131.578 128 136V376C128 380.422 131.594 384 136 384S144 380.422 144 376V272H280C284.406 272 288 268.422 288 264S284.406 256 280 256H144V144H312C316.406 144 320 140.422 320 136S316.406 128 312 128Z"/></svg>

<svg xmlns="http://www.w3.org/2000/svg" viewBox="0 0 448 512"><!--! Font Awesome Pro 6.0.0-alpha3 by @fontawesome - https://fontawesome.com License - https://fontawesome.com/license (Commercial License) --><path d="M384 32H64C28.65 32 0 60.65 0 96v320c0 35.35 28.65 64 64 64h320c35.35 0 64-28.65 64-64V96C448 60.65 419.3 32 384 32zM432 416c0 26.47-21.53 48-48 48H64c-26.47 0-48-21.53-48-48V96c0-26.47 21.53-48 48-48h320c26.47 0 48 21.53 48 48V416zM312 128h-176C131.6 128 128 131.6 128 136v240C128 380.4 131.6 384 136 384s8-3.578 8-8V272h136C284.4 272 288 268.4 288 264S284.4 256 280 256H144V144h168C316.4 144 320 140.4 320 136S316.4 128 312 128z"/></svg>
